icons/svg/warning_16.svg

<svg width="16" height="16" viewBox="0 0 16 16" fill="none" xmlns="http://www.w3.org/2000/svg">
<path fill-rule="evenodd" clip-rule="evenodd" d="M8.00022 6.0002C7.72522 6.0002 7.50022 6.2252 7.50022 6.5002V9.5002C7.50022 9.7752 7.72522 10.0002 8.00022 10.0002C8.27522 10.0002 8.50022 9.7752 8.50022 9.5002V6.5002C8.50022 6.2252 8.27522 6.0002 8.00022 6.0002ZM14.8918 13.569C14.7398 13.843 14.4678 14 14.1478 14H1.85282C1.53282 14 1.26082 13.843 1.10682 13.567C0.96082 13.305 0.96482 13.007 1.12082 12.748L7.26482 2.413C7.42182 2.151 7.68982 2 7.99982 2C8.30982 2 8.57782 2.15 8.73382 2.412L8.85582 2.617L14.8818 12.75C15.0358 13.008 15.0398 13.305 14.8918 13.569ZM15.7408 12.238L9.59382 1.901C9.59382 1.9 9.59382 1.9 9.59182 1.9C9.25582 1.336 8.66082 1 7.99982 1C7.33982 1 6.74382 1.336 6.40682 1.901L0.26082 12.237C-0.0771803 12.801 -0.0871803 13.481 0.23382 14.055C0.56382 14.647 1.17082 15 1.85282 15H14.1478C14.8298 15 15.4358 14.647 15.7658 14.056C16.0878 13.482 16.0768 12.801 15.7408 12.238ZM8.00022 11.0002C7.72422 11.0002 7.50022 11.2242 7.50022 11.5002C7.50022 11.7762 7.72422 12.0002 8.00022 12.0002C8.27622 12.0002 8.50022 11.7762 8.50022 11.5002C8.50022 11.2242 8.27622 11.0002 8.00022 11.0002Z" fill="#121212"/>
</svg>

<?xml version="1.0" encoding="utf-8"?>
<!-- Generator: Adobe Illustrator 23.0.2, SVG Export Plug-In . SVG Version: 6.00 Build 0)  -->
<svg version="1.1" id="Layer_1" xmlns="http://www.w3.org/2000/svg" xmlns:xlink="http://www.w3.org/1999/xlink" x="0px" y="0px"
	 viewBox="0 0 16 16" style="enable-background:new 0 0 16 16;" xml:space="preserve">
<style type="text/css">
	.st0{fill-rule:evenodd;clip-rule:evenodd;fill:#121212;}
</style>
<g>
	<path class="st0" d="M15.7,12.2L9.6,1.9c0,0,0,0,0,0C9.3,1.3,8.7,1,8,1C7.3,1,6.7,1.3,6.4,1.9L0.3,12.2c-0.3,0.6-0.3,1.2,0,1.8
		C0.6,14.6,1.2,15,1.9,15h12.3c0.7,0,1.3-0.4,1.6-0.9C16.1,13.5,16.1,12.8,15.7,12.2z M14.9,13.6c-0.2,0.3-0.4,0.4-0.7,0.4H1.9
		c-0.3,0-0.6-0.2-0.7-0.4C1,13.3,1,13,1.1,12.7L7.3,2.4C7.4,2.2,7.7,2,8,2s0.6,0.2,0.7,0.4l0.1,0.2l6,10.1C15,13,15,13.3,14.9,13.6z
		"/>
	<path class="st0" d="M8,6C7.7,6,7.5,6.2,7.5,6.5v3C7.5,9.8,7.7,10,8,10c0.3,0,0.5-0.2,0.5-0.5v-3C8.5,6.2,8.3,6,8,6z"/>
	<circle class="st0" cx="8" cy="11.5" r="0.5"/>
</g>
</svg>
